Pocillo/48/places/user-desktop.svg

<?xml version="1.0" encoding="UTF-8" standalone="no"?>
<svg
   xmlns:dc="http://purl.org/dc/elements/1.1/"
   xmlns:cc="http://creativecommons.org/ns#"
   xmlns:rdf="http://www.w3.org/1999/02/22-rdf-syntax-ns#"
   xmlns:svg="http://www.w3.org/2000/svg"
   xmlns="http://www.w3.org/2000/svg"
   xmlns:xlink="http://www.w3.org/1999/xlink"
   id="svg3759"
   height="48"
   width="48"
   version="1.1">
  <metadata
     id="metadata37">
    <rdf:RDF>
      <cc:Work
         rdf:about="">
        <dc:format>image/svg+xml</dc:format>
        <dc:type
           rdf:resource="http://purl.org/dc/dcmitype/StillImage" />
        <dc:title />
      </cc:Work>
    </rdf:RDF>
  </metadata>
  <defs
     id="defs3761">
    <linearGradient
       id="linearGradient4134">
      <stop
         id="stop4136"
         offset="0"
         style="stop-color:#ffffff;stop-opacity:1;" />
      <stop
         id="stop4138"
         offset="1"
         style="stop-color:#ffffff;stop-opacity:0;" />
    </linearGradient>
    <clipPath
       id="clipPath4130"
       clipPathUnits="userSpaceOnUse">
      <path
         style="fill:#ba2222;fill-opacity:1;stroke:none"
         d="M 790.4375,237 C 789.62555,237 789,237.62555 789,238.4375 l 0,35.09375 c 0,0.812 0.62555,1.46875 1.4375,1.46875 l 35.125,0 c 0.81195,0 1.4375,-0.65675 1.4375,-1.46875 l 0,-35.09375 C 827,237.62555 826.37445,237 825.5625,237 l -35.125,0 z"
         id="path4132" />
    </clipPath>
    <linearGradient
       id="outerBackgroundGradient-6">
      <stop
         id="stop3864-8-6-0"
         offset="0"
         style="stop-color:#111111;stop-opacity:1;" />
      <stop
         id="stop3866-9-1-7"
         offset="1"
         style="stop-color:#222222;stop-opacity:1;" />
    </linearGradient>
    <linearGradient
       y2="-808"
       x2="-984.86218"
       y1="-808"
       x1="-1023.8622"
       gradientTransform="matrix(0,-1,1,0,832,-978.3622)"
       gradientUnits="userSpaceOnUse"
       id="linearGradient3077"
       xlink:href="#outerBackgroundGradient-6" />
    <linearGradient
       y2="-808"
       x2="-984.86218"
       y1="-808"
       x1="-1023.8622"
       gradientTransform="matrix(0,-1,-1,0,-784,-978.3622)"
       gradientUnits="userSpaceOnUse"
       id="linearGradient3851"
       xlink:href="#outerBackgroundGradient-0-1" />
    <linearGradient
       id="linearGradient3952">
      <stop
         id="stop3954"
         offset="0"
         style="stop-color:#000000;stop-opacity:1;" />
      <stop
         id="stop3956"
         offset="1"
         style="stop-color:#000000;stop-opacity:0;" />
    </linearGradient>
    <linearGradient
       id="linearGradient3944">
      <stop
         id="stop3946"
         offset="0"
         style="stop-color:#000000;stop-opacity:1;" />
      <stop
         id="stop3948"
         offset="1"
         style="stop-color:#000000;stop-opacity:0;" />
    </linearGradient>
    <linearGradient
       id="linearGradient3960">
      <stop
         id="stop3962"
         offset="0"
         style="stop-color:#000000;stop-opacity:0;" />
      <stop
         style="stop-color:#000000;stop-opacity:1;"
         offset="0.5"
         id="stop3970" />
      <stop
         id="stop3964"
         offset="1"
         style="stop-color:#000000;stop-opacity:0;" />
    </linearGradient>
    <linearGradient
       id="outerBackgroundGradient-0-1">
      <stop
         id="stop3864-8-6-3-6"
         offset="0"
         style="stop-color:#3689e6;stop-opacity:1" />
      <stop
         id="stop3866-9-1-7-3"
         offset="1"
         style="stop-color:#90dbec;stop-opacity:1" />
    </linearGradient>
    <linearGradient
       y2="256"
       x2="827"
       y1="256"
       x1="789"
       gradientUnits="userSpaceOnUse"
       id="linearGradient3929"
       xlink:href="#linearGradient4134" />
    <radialGradient
       r="2"
       fy="43.5"
       fx="40"
       cy="43.5"
       cx="40"
       gradientTransform="matrix(1.0571429,0,0,1.25,0.6,-10.875)"
       gradientUnits="userSpaceOnUse"
       id="radialGradient3931"
       xlink:href="#linearGradient3952" />
    <radialGradient
       r="2"
       fy="43.5"
       fx="40"
       cy="43.5"
       cx="40"
       gradientTransform="matrix(1,0,0,0.75,2,10.875)"
       gradientUnits="userSpaceOnUse"
       id="radialGradient3933"
       xlink:href="#linearGradient3952" />
    <radialGradient
       r="2"
       fy="43.5"
       fx="9"
       cy="43.5"
       cx="9"
       gradientTransform="matrix(1.0571429,0,0,1.25,-4.4000003,-10.875)"
       gradientUnits="userSpaceOnUse"
       id="radialGradient3935"
       xlink:href="#linearGradient3944" />
    <radialGradient
       r="2"
       fy="43.5"
       fx="9"
       cy="43.5"
       cx="9"
       gradientTransform="matrix(1,0,0,0.75,-3.0000003,10.875)"
       gradientUnits="userSpaceOnUse"
       id="radialGradient3937"
       xlink:href="#linearGradient3944" />
    <linearGradient
       y2="42"
       x2="25"
       y1="45"
       x1="25"
       gradientTransform="matrix(1.0571429,0,0,1.6666667,-5.4000003,-29)"
       gradientUnits="userSpaceOnUse"
       id="linearGradient3939"
       xlink:href="#linearGradient3960" />
    <linearGradient
       y2="42"
       x2="25"
       y1="45"
       x1="25"
       gradientTransform="translate(-4.0000003,0)"
       gradientUnits="userSpaceOnUse"
       id="linearGradient3941"
       xlink:href="#linearGradient3960" />
  </defs>
  <g
     id="layer1">
    <g
       transform="translate(0,-2)"
       id="g3135">
      <path
         id="path3987"
         d="m 42.885716,41.000001 0,5 0.528571,0 c 0.878486,0 1.585715,-1.115 1.585715,-2.5 0,-1.385 -0.707229,-2.5 -1.585715,-2.5 l -0.528571,0 z"
         style="opacity:0.12000002;fill:url(#radialGradient3931);fill-opacity:1;stroke:none" />
      <path
         style="opacity:0.12000002;fill:url(#radialGradient3933);fill-opacity:1;stroke:none"
         d="m 42,42 0,3 0.5,0 C 43.331,45 44,44.331 44,43.5 44,42.669 43.331,42 42.5,42 L 42,42 z"
         id="rect3940" />
      <path
         id="path3989"
         d="M 4.4866072,41.000001 C 3.6630268,41.000001 3,42.045313 3,43.343751 l 0,0.3125 c 0,1.298439 0.6630268,2.34375 1.4866072,2.34375 l 0.6276786,0 0,-5 -0.6276786,0 z"
         style="opacity:0.12000002;fill:url(#radialGradient3935);fill-opacity:1;stroke:none" />
      <path
         style="opacity:0.12000002;fill:url(#radialGradient3937);fill-opacity:1;stroke:none"
         d="m 5.4062497,42 c -0.7790625,0 -1.40625,0.627187 -1.40625,1.40625 l 0,0.1875 c 0,0.779063 0.6271875,1.40625 1.40625,1.40625 l 0.59375,0 0,-3 -0.59375,0 z"
         id="rect3942" />
      <path
         style="opacity:0.12000002;fill:url(#linearGradient3939);fill-opacity:1;stroke:none"
         d="m 5.1141432,41 37.7717148,0 0,5 -37.7717148,0 z"
         id="rect3985" />
      <path
         style="opacity:0.12000002;fill:url(#linearGradient3941);fill-opacity:1;stroke:none"
         d="m 5.9998568,42 36.0002842,0 0,3 -36.0002842,0 z"
         id="rect3938" />
    </g>
    <path
       id="rect3075"
       d="M 41.5625,6.5 C 42.6428,6.5 43.5,7.3572014 43.5,8.4375 l 0,2.5625 -39,0 0,-2.5625 C 4.5,7.3572014 5.3572,6.5 6.4375,6.5 z"
       style="fill:url(#linearGradient3077);fill-opacity:1;stroke:none;display:inline" />
    <path
       id="rect4073"
       d="m 4.5,11 0,28.5625 C 4.5,40.642799 5.3572,41.5 6.4375,41.5 l 35.125,0 C 42.6428,41.5 43.5,40.642799 43.5,39.5625 L 43.5,11 z"
       style="fill:url(#linearGradient3851);fill-opacity:1;stroke:none;display:inline" />
    <path
       id="rect3853"
       d="m 4.5,11 39,0 0,1 -39,0 z"
       style="fill:#000000;fill-opacity:1;stroke:none" />
    <path
       id="rect3855"
       d="m 4.5,12 39,0 0,1 -39,0 z"
       style="opacity:0.4;fill:#ffffff;fill-opacity:1;stroke:none" />
    <path
       id="rect4085"
       d="M 6.4375,6 C 5.088849,6 4,7.0888497 4,8.4375 L 4,12 5,12 5,8.4375 C 5,7.6255532 5.625551,7 6.4375,7 l 35.125,0 C 42.374449,7 43,7.6255532 43,8.4375 L 43,12 44,12 44,8.4375 C 44,7.0888497 42.911151,6 41.5625,6 z"
       style="font-size:medium;font-style:normal;font-variant:normal;font-weight:normal;font-stretch:normal;text-indent:0;text-align:start;text-decoration:none;line-height:normal;letter-spacing:normal;word-spacing:normal;text-transform:none;direction:ltr;block-progression:tb;writing-mode:lr-tb;text-anchor:start;baseline-shift:baseline;opacity:0.61000001;color:#000000;fill:#000000;fill-opacity:1;stroke:none;stroke-width:1;marker:none;visibility:visible;display:inline;overflow:visible;enable-background:accumulate;font-family:Sans;-inkscape-font-specification:Sans" />
    <path
       id="path124"
       clip-path="url(#clipPath4130)"
       d="M 790.4375,237 C 789.62555,237 789,237.62555 789,238.4375 l 0,35.09375 c 0,0.812 0.62555,1.46875 1.4375,1.46875 l 31.125,0 c 0.81195,0 1.4375,-0.65675 1.4375,-1.46875 l 0,-35.09375 C 823,237.62555 822.37445,237 821.5625,237 z"
       style="opacity:0.1;fill:none;stroke:url(#linearGradient3929);stroke-width:2;stroke-miterlimit:4;stroke-opacity:1;stroke-dasharray:none;display:inline"
       transform="matrix(0,1,-1,0,280,-782)" />
    <path
       id="rect4089-4"
       d="M 6.4375,7.00002 C 5.62555,7.00002 5,7.62557 5,8.43752 l 0,1 C 5,8.62557 5.62555,8.00002 6.4375,8.00002 l 35.125,0 c 0.81195,0 1.4375,0.62555 1.4375,1.4375 l 0,-1 c 0,-0.81195 -0.62555,-1.4375 -1.4375,-1.4375 z"
       style="opacity:0.05;fill:#ffffff;fill-opacity:1;stroke:none;display:inline" />
    <path
       style="opacity:0.1;fill:#ffffff;fill-opacity:1;stroke:none;display:inline"
       d="M 6.4375,41.000017 C 5.62555,41.000017 5,40.374417 5,39.562517 L 5,38.56252 c 0,0.811897 0.62555,1.437497 1.4375,1.437497 l 35.125,0 c 0.81195,0 1.4375,-0.6256 1.4375,-1.437497 l 0,0.999997 c 0,0.8119 -0.62555,1.4375 -1.4375,1.4375 z"
       id="path4105" />
    <path
       id="path3134"
       d="M 4,12 4,39.5625 C 4,40.91115 5.088849,42 6.4375,42 l 35.125,0 C 42.911151,42 44,40.91115 44,39.5625 L 44,12 43,12 43,39.5625 C 43,40.374447 42.374449,41 41.5625,41 L 6.4375,41 C 5.625551,41 5,40.374447 5,39.5625 L 5,12 z"
       style="font-size:medium;font-style:normal;font-variant:normal;font-weight:normal;font-stretch:normal;text-indent:0;text-align:start;text-decoration:none;line-height:normal;letter-spacing:normal;word-spacing:normal;text-transform:none;direction:ltr;block-progression:tb;writing-mode:lr-tb;text-anchor:start;baseline-shift:baseline;opacity:0.81000001;color:#000000;fill:#004c6f;fill-opacity:1;stroke:none;stroke-width:1;marker:none;visibility:visible;display:inline;overflow:visible;enable-background:accumulate;font-family:Sans;-inkscape-font-specification:Sans" />
  </g>
  <g
     id="layer2" />
</svg>

<?xml version="1.0" encoding="UTF-8" standalone="no"?>
<svg id="svg3759" xmlns:rdf="http://www.w3.org/1999/02/22-rdf-syntax-ns#" xmlns="http://www.w3.org/2000/svg" height="48" width="48" version="1.1" xmlns:cc="http://creativecommons.org/ns#" xmlns:xlink="http://www.w3.org/1999/xlink" xmlns:dc="http://purl.org/dc/elements/1.1/">
 <metadata id="metadata37">
  <rdf:RDF>
   <cc:Work rdf:about="">
    <dc:format>image/svg+xml</dc:format>
    <dc:type rdf:resource="http://purl.org/dc/dcmitype/StillImage"/>
    <dc:title/>
   </cc:Work>
  </rdf:RDF>
 </metadata>
 <defs id="defs3761">
  <clipPath id="clipPath4130" clipPathUnits="userSpaceOnUse">
   <path id="path4132" style="fill:#ba2222" d="m790.44 237c-0.81 0-1.44 0.63-1.44 1.44v35.094c0 0.812 0.62555 1.4688 1.4375 1.4688h35.125c0.81195 0 1.4375-0.65675 1.4375-1.4688v-35.094c0-0.81-0.63-1.44-1.44-1.44h-35.125z"/>
  </clipPath>
  <linearGradient id="linearGradient3077" y2="-808" gradientUnits="userSpaceOnUse" y1="-808" gradientTransform="matrix(0 -1 1 0 832 -978.36)" x2="-984.86" x1="-1023.9">
   <stop id="stop3864-8-6-0" style="stop-color:#111" offset="0"/>
   <stop id="stop3866-9-1-7" style="stop-color:#222" offset="1"/>
  </linearGradient>
  <linearGradient id="linearGradient3851" y2="-808" gradientUnits="userSpaceOnUse" y1="-808" gradientTransform="matrix(0 -1 -1 0 -784 -978.36)" x2="-984.86" x1="-1023.9">
   <stop id="stop3864-8-6-3-6" style="stop-color:#3689e6" offset="0"/>
   <stop id="stop3866-9-1-7-3" style="stop-color:#90dbec" offset="1"/>
  </linearGradient>
  <linearGradient id="linearGradient3952">
   <stop id="stop3954" offset="0"/>
   <stop id="stop3956" style="stop-opacity:0" offset="1"/>
  </linearGradient>
  <linearGradient id="linearGradient3960">
   <stop id="stop3962" style="stop-opacity:0" offset="0"/>
   <stop id="stop3970" offset=".5"/>
   <stop id="stop3964" style="stop-opacity:0" offset="1"/>
  </linearGradient>
  <linearGradient id="linearGradient3929" y2="256" gradientUnits="userSpaceOnUse" y1="256" x2="827" x1="789">
   <stop id="stop4136" style="stop-color:#fff" offset="0"/>
   <stop id="stop4138" style="stop-color:#fff;stop-opacity:0" offset="1"/>
  </linearGradient>
  <radialGradient id="radialGradient3931" gradientUnits="userSpaceOnUse" xlink:href="#linearGradient3952" cx="40" cy="43.5" r="2" gradientTransform="matrix(1.0571 0 0 1.25 .6 -10.875)"/>
  <radialGradient id="radialGradient3933" gradientUnits="userSpaceOnUse" xlink:href="#linearGradient3952" cx="40" cy="43.5" r="2" gradientTransform="matrix(1 0 0 .75 2 10.875)"/>
  <radialGradient id="radialGradient3935" gradientUnits="userSpaceOnUse" xlink:href="#linearGradient3952" cx="9" cy="43.5" r="2" gradientTransform="matrix(1.0571 0 0 1.25 -4.4 -10.875)"/>
  <radialGradient id="radialGradient3937" gradientUnits="userSpaceOnUse" xlink:href="#linearGradient3952" cx="9" cy="43.5" r="2" gradientTransform="matrix(1 0 0 .75 -3 10.875)"/>
  <linearGradient id="linearGradient3939" y2="42" xlink:href="#linearGradient3960" gradientUnits="userSpaceOnUse" y1="45" gradientTransform="matrix(1.0571 0 0 1.6667 -5.4 -29)" x2="25" x1="25"/>
  <linearGradient id="linearGradient3941" y2="42" xlink:href="#linearGradient3960" gradientUnits="userSpaceOnUse" y1="45" gradientTransform="translate(-4)" x2="25" x1="25"/>
 </defs>
 <g id="layer1">
  <g id="g3135" transform="translate(0,-2)">
   <path id="path3987" style="opacity:0.12;fill:url(#radialGradient3931)" d="m42.886 41v5h0.52857c0.87849 0 1.5857-1.115 1.5857-2.5s-0.70723-2.5-1.5857-2.5h-0.52857z"/>
   <path id="rect3940" style="opacity:0.12;fill:url(#radialGradient3933)" d="m42 42v3h0.5c0.831 0 1.5-0.669 1.5-1.5s-0.669-1.5-1.5-1.5h-0.5z"/>
   <path id="path3989" style="opacity:0.12;fill:url(#radialGradient3935)" d="m4.4866 41c-0.8236 0-1.4866 1.045-1.4866 2.344v0.3125c0 1.2984 0.66303 2.3438 1.4866 2.3438h0.62768v-5h-0.62768z"/>
   <path id="rect3942" style="opacity:0.12;fill:url(#radialGradient3937)" d="m5.4062 42c-0.77906 0-1.4062 0.62719-1.4062 1.4062v0.1875c0 0.77906 0.62719 1.4062 1.4062 1.4062h0.59375v-3h-0.59375z"/>
   <path id="rect3985" style="opacity:0.12;fill:url(#linearGradient3939)" d="m5.1141 41h37.772v5h-37.772z"/>
   <path id="rect3938" style="opacity:0.12;fill:url(#linearGradient3941)" d="m5.9999 42h36v3h-36z"/>
  </g>
  <path id="rect3075" style="fill:url(#linearGradient3077)" d="m41.562 6.5c1.081 0 1.938 0.8572 1.938 1.9375v2.5625h-39v-2.5625c0-1.0803 0.8572-1.9375 1.9375-1.9375z"/>
  <path id="rect4073" style="fill:url(#linearGradient3851)" d="m4.5 11v28.562c0 1.081 0.8572 1.938 1.9375 1.938h35.125c1.081 0 1.938-0.857 1.938-1.938v-28.562z"/>
  <path id="rect3853" d="m4.5 11h39v1h-39z"/>
  <path id="rect3855" style="opacity:.4;fill:#fff" d="m4.5 12h39v1h-39z"/>
  <path id="rect4085" style="opacity:0.61;block-progression:tb;text-indent:0;color:#000000;text-transform:none" d="m6.4375 6c-1.3487 0-2.4375 1.0888-2.4375 2.4375v3.5625h1v-3.5625c0-0.8119 0.6256-1.4375 1.4375-1.4375h35.125c0.812 0 1.438 0.6256 1.438 1.4375v3.5625h1v-3.5625c0-1.3487-1.089-2.4375-2.438-2.4375z"/>
  <path id="path124" d="m790.44 237c-0.81 0-1.44 0.63-1.44 1.44v35.094c0 0.812 0.62555 1.4688 1.4375 1.4688h31.125c0.81195 0 1.4375-0.65675 1.4375-1.4688v-35.094c0-0.81-0.63-1.44-1.44-1.44z" style="opacity:.1;stroke:url(#linearGradient3929);stroke-width:2;fill:none" transform="matrix(0,1,-1,0,280,-782)" clip-path="url(#clipPath4130)"/>
  <path id="rect4089-4" style="opacity:.05;fill:#fff" d="m6.4375 7c-0.8119 0-1.4375 0.6256-1.4375 1.4375v1c0-0.8119 0.6256-1.4375 1.4375-1.4375h35.125c0.81195 0 1.4375 0.62555 1.4375 1.4375v-1c0-0.81195-0.62555-1.4375-1.4375-1.4375z"/>
  <path id="path4105" style="opacity:.1;fill:#fff" d="m6.4375 41c-0.8119 0-1.4375-0.626-1.4375-1.437v-1c0 0.8119 0.62555 1.4375 1.4375 1.4375h35.125c0.81195 0 1.4375-0.6256 1.4375-1.4375v1c0 0.8119-0.62555 1.4375-1.4375 1.4375z"/>
  <path id="path3134" style="opacity:0.81;block-progression:tb;text-indent:0;color:#000000;text-transform:none;fill:#004c6f" d="m4 12v27.562c0 1.349 1.0888 2.438 2.4375 2.438h35.125c1.349 0 2.438-1.089 2.438-2.438v-27.562h-1v27.562c0 0.812-0.626 1.438-1.438 1.438h-35.124c-0.8124 0-1.438-0.626-1.438-1.438v-27.562z"/>
 </g>
</svg>
